docs/imgs/icons/sprite-social-btns.svg

<svg width="151" height="97" viewBox="0 0 151 97" fill="none" xmlns="http://www.w3.org/2000/svg">
<path d="M96.6998 1.5V43.5H54.2998V1.5H96.6998ZM98.1998 0H52.7998V45H98.2998V0H98.1998Z" fill="#666666"/>
<path d="M96.6998 1.5V43.5H54.2998V1.5H96.6998ZM98.1998 0H52.7998V45H98.2998V0H98.1998Z" fill="#666666"/>
<path d="M85.3002 9.5H65.5002C63.7002 9.5 62.2002 11 62.2002 12.8V32.5C62.2002 34.3 63.7002 35.8 65.5002 35.8H85.3002C87.1002 35.8 88.6002 34.3 88.6002 32.5V12.7C88.7002 10.9 87.3002 9.5 85.3002 9.5ZM75.5002 17.5C78.4002 17.5 80.8002 19.8 80.8002 22.6C80.8002 25.4 78.4002 27.7 75.5002 27.7C72.6002 27.7 70.2002 25.4 70.2002 22.6C70.2002 19.8 72.4002 17.5 75.5002 17.5ZM85.3002 31.6C85.3002 32.2 85.0002 32.4 84.5002 32.4H66.4002C65.8002 32.4 65.6002 32.1 65.6002 31.6V20L67.7002 20.5C67.5002 21.3 67.4002 22 67.4002 22.8C67.4002 27.2 71.0002 30.8 75.6002 30.8C80.1002 30.8 83.8002 27.2 83.8002 22.8C83.8002 22 83.6002 21.3 83.5002 20.5L85.5002 20L85.3002 31.6ZM85.3002 16.9C85.3002 17.4 85.0002 17.7 84.5002 17.7H81.2002C80.7002 17.7 80.4002 17.4 80.4002 16.9V13.6C80.4002 13.1 80.7002 12.8 81.2002 12.8H84.5002C85.0002 12.8 85.3002 13.1 85.3002 13.6V16.9Z" fill="#666666"/>
<path d="M148.9 1.6001V43.6001H106.5V1.6001H148.9ZM150.4 0.100098H105V45.1001H150.4V0.100098Z" fill="#666666"/>
<path d="M148.9 1.6001V43.6001H106.5V1.6001H148.9ZM150.4 0.100098H105V45.1001H150.4V0.100098Z" fill="#666666"/>
<path d="M138.5 17.8002C138.5 24.1002 135 28.8002 129.9 28.8002C128.2 28.8002 126.6 27.9002 126 26.8002C126 26.8002 125.1 30.6002 124.9 31.2002C124.1 33.8002 122.2 36.2002 122 36.5002C121.8 36.7002 121.7 36.7002 121.5 36.3002C121.5 36.0002 120.9 32.8002 121.5 30.3002C121.8 28.9002 123.6 21.6002 123.6 21.6002C123.6 21.6002 123.1 20.5002 123.1 19.0002C123.1 16.6002 124.5 14.8002 126.3 14.8002C127.8 14.8002 128.4 15.9002 128.4 17.2002C128.4 18.7002 127.5 20.8002 127 22.9002C126.5 24.6002 127.9 25.9002 129.6 25.9002C132.6 25.9002 134.8 22.0002 134.8 17.3002C134.8 13.8002 132.4 11.1002 128.1 11.1002C123.3 11.1002 120.2 14.7002 120.2 18.8002C120.2 20.2002 120.7 21.2002 121.3 22.0002C121.6 22.3002 121.6 22.5002 121.6 22.9002C121.4 23.2002 121.3 24.0002 121.3 24.3002C121.1 24.8002 120.8 24.9002 120.5 24.8002C118.2 23.9002 117.2 21.5002 117.2 18.6002C117.2 14.1002 121 8.7002 128.7 8.7002C134.5 8.7002 138.5 13.0002 138.5 17.8002Z" fill="#666666"/>
<path d="M44 1.5V43.6H1.5V1.5H44ZM45.5 0H0V45.1H45.5V0Z" fill="#666666"/>
<path d="M44 1.5V43.6H1.5V1.5H44ZM45.5 0H0V45.1H45.5V0Z" fill="#666666"/>
<path d="M19.6002 34.6999H24.8002V22.5999H28.1002L28.6002 18.3999H24.8002V16.2999C24.8002 15.1999 25.0002 14.5999 26.5002 14.5999H28.6002V10.3999H25.3002C21.2002 10.3999 19.8002 12.4999 19.8002 15.7999V18.3999H17.2002V22.5999H19.8002C19.6002 22.5999 19.6002 34.6999 19.6002 34.6999Z" fill="#666666"/>
<path d="M44.0996 52.7002V94.8002H1.59961V52.7002H44.0996ZM45.5996 51.2002H0.0996094V96.3002H45.5996V51.2002Z" fill="#FB8E9A"/>
<path d="M44.0996 52.7002V94.8002H1.59961V52.7002H44.0996ZM45.5996 51.2002H0.0996094V96.3002H45.5996V51.2002Z" fill="#FB8E9A"/>
<path d="M19.5992 86.0001H24.7992V73.8001H28.0992L28.5992 69.6001H24.7992V67.5001C24.7992 66.4001 24.9992 65.8001 26.4992 65.8001H28.5992V61.6001H25.2992C21.1992 61.6001 19.7992 63.7001 19.7992 67.0001V69.4001H17.1992V73.6001H19.7992C19.5992 73.7001 19.5992 86.0001 19.5992 86.0001Z" fill="#FB8E9A"/>
<path d="M96.7998 52.7002V94.8002H54.2998V52.7002H96.7998ZM98.2998 51.2002H52.7998V96.3002H98.2998V51.2002Z" fill="#FB8E9A"/>
<path d="M96.7998 52.7002V94.8002H54.2998V52.7002H96.7998ZM98.2998 51.2002H52.7998V96.3002H98.2998V51.2002Z" fill="#FB8E9A"/>
<path d="M85.3998 60.6001H65.5998C63.7998 60.6001 62.2998 62.1001 62.2998 63.9001V83.6001C62.2998 85.4001 63.7998 86.9001 65.5998 86.9001H85.3998C87.1998 86.9001 88.6998 85.4001 88.6998 83.6001V63.9001C88.6998 62.0001 87.3998 60.6001 85.3998 60.6001ZM75.5998 68.6001C78.4998 68.6001 80.8998 70.9001 80.8998 73.7001C80.8998 76.6001 78.4998 78.8001 75.5998 78.8001C72.6998 78.8001 70.2998 76.5001 70.2998 73.7001C70.1998 70.8001 72.4998 68.6001 75.5998 68.6001ZM85.3998 82.7001C85.3998 83.3001 85.0998 83.5001 84.5998 83.5001H66.4998C65.8998 83.5001 65.6998 83.2001 65.6998 82.7001V71.1001L67.7998 71.6001C67.5998 72.4001 67.4998 73.1001 67.4998 73.9001C67.4998 78.3001 71.0998 81.9001 75.6998 81.9001C80.1998 81.9001 83.8998 78.3001 83.8998 73.9001C83.8998 73.1001 83.6998 72.4001 83.5998 71.6001L85.5998 71.1001L85.3998 82.7001ZM85.3998 68.0001C85.3998 68.5001 85.0998 68.8001 84.5998 68.8001H81.2998C80.7998 68.8001 80.4998 68.5001 80.4998 68.0001V64.7001C80.4998 64.2001 80.7998 63.9001 81.2998 63.9001H84.5998C85.0998 63.9001 85.3998 64.2001 85.3998 64.7001V68.0001Z" fill="#FB8E9A"/>
<path d="M149.1 52.7002V94.6002H106.7V52.7002H149.1ZM150.6 51.2002H105.1V96.1002H150.6V51.2002Z" fill="#FB8E9A"/>
<path d="M149.1 52.7002V94.6002H106.7V52.7002H149.1ZM150.6 51.2002H105.1V96.1002H150.6V51.2002Z" fill="#FB8E9A"/>
<path d="M138.6 68.9002C138.6 75.2002 135.1 79.8002 130 79.8002C128.3 79.8002 126.7 78.9002 126.1 77.9002C126.1 77.9002 125.2 81.6002 125 82.2002C124.2 84.7002 122.3 87.1002 122.1 87.4002C121.9 87.5002 121.8 87.5002 121.6 87.3002C121.6 87.0002 121 83.9002 121.6 81.3002C121.9 80.0002 123.7 72.6002 123.7 72.6002C123.7 72.6002 123.2 71.6002 123.2 70.1002C123.2 67.7002 124.6 65.9002 126.4 65.9002C127.9 65.9002 128.5 66.9002 128.5 68.3002C128.5 69.8002 127.6 71.9002 127.1 74.0002C126.6 75.6002 128 77.0002 129.7 77.0002C132.7 77.0002 134.9 73.1002 134.9 68.5002C134.9 65.1002 132.5 62.4002 128.2 62.4002C123.4 62.4002 120.3 66.0002 120.3 70.0002C120.3 71.3002 120.8 72.4002 121.4 73.1002C121.7 73.4002 121.7 73.5002 121.7 74.0002C121.5 74.3002 121.4 75.0002 121.4 75.3002C121.2 75.7002 120.9 75.9002 120.6 75.7002C118.3 74.8002 117.3 72.4002 117.3 69.6002C117.3 65.1002 121.1 59.7002 128.8 59.7002C134.7 59.8002 138.6 64.3002 138.6 68.9002Z" fill="#FB8E9A"/>
</svg>

<svg width="151" height="97" fill="none" xmlns="http://www.w3.org/2000/svg"><path d="M96.7 1.5v42H54.3v-42h42.4zM98.2 0H52.8v45h45.5V0h-.1z" fill="#666"/><path d="M96.7 1.5v42H54.3v-42h42.4zM98.2 0H52.8v45h45.5V0h-.1z" fill="#666"/><path d="M85.3 9.5H65.5c-1.8 0-3.3 1.5-3.3 3.3v19.7c0 1.8 1.5 3.3 3.3 3.3h19.8c1.8 0 3.3-1.5 3.3-3.3V12.7c.1-1.8-1.3-3.2-3.3-3.2zm-9.8 8c2.9 0 5.3 2.3 5.3 5.1s-2.4 5.1-5.3 5.1-5.3-2.3-5.3-5.1 2.2-5.1 5.3-5.1zm9.8 14.1c0 .6-.3.8-.8.8H66.4c-.6 0-.8-.3-.8-.8V20l2.1.5c-.2.8-.3 1.5-.3 2.3 0 4.4 3.6 8 8.2 8 4.5 0 8.2-3.6 8.2-8 0-.8-.2-1.5-.3-2.3l2-.5-.2 11.6zm0-14.7c0 .5-.3.8-.8.8h-3.3c-.5 0-.8-.3-.8-.8v-3.3c0-.5.3-.8.8-.8h3.3c.5 0 .8.3.8.8v3.3zm63.6-15.3v42h-42.4v-42h42.4zm1.5-1.5H105v45h45.4V.1z" fill="#666"/><path d="M148.9 1.6v42h-42.4v-42h42.4zm1.5-1.5H105v45h45.4V.1z" fill="#666"/><path d="M138.5 17.8c0 6.3-3.5 11-8.6 11-1.7 0-3.3-.9-3.9-2 0 0-.9 3.8-1.1 4.4-.8 2.6-2.7 5-2.9 5.3-.2.2-.3.2-.5-.2 0-.3-.6-3.5 0-6 .3-1.4 2.1-8.7 2.1-8.7s-.5-1.1-.5-2.6c0-2.4 1.4-4.2 3.2-4.2 1.5 0 2.1 1.1 2.1 2.4 0 1.5-.9 3.6-1.4 5.7-.5 1.7.9 3 2.6 3 3 0 5.2-3.9 5.2-8.6 0-3.5-2.4-6.2-6.7-6.2-4.8 0-7.9 3.6-7.9 7.7 0 1.4.5 2.4 1.1 3.2.3.3.3.5.3.9-.2.3-.3 1.1-.3 1.4-.2.5-.5.6-.8.5-2.3-.9-3.3-3.3-3.3-6.2 0-4.5 3.8-9.9 11.5-9.9 5.8 0 9.8 4.3 9.8 9.1zM44 1.5v42.1H1.5V1.5H44zM45.5 0H0v45.1h45.5V0z" fill="#666"/><path d="M44 1.5v42.1H1.5V1.5H44zM45.5 0H0v45.1h45.5V0z" fill="#666"/><path d="M19.6 34.7h5.2V22.6h3.3l.5-4.2h-3.8v-2.1c0-1.1.2-1.7 1.7-1.7h2.1v-4.2h-3.3c-4.1 0-5.5 2.1-5.5 5.4v2.6h-2.6v4.2h2.6c-.2 0-.2 12.1-.2 12.1z" fill="#666"/><path d="M44.1 52.7v42.1H1.6V52.7h42.5zm1.5-1.5H.1v45.1h45.5V51.2z" fill="#FB8E9A"/><path d="M44.1 52.7v42.1H1.6V52.7h42.5zm1.5-1.5H.1v45.1h45.5V51.2z" fill="#FB8E9A"/><path d="M19.6 86h5.2V73.8h3.3l.5-4.2h-3.8v-2.1c0-1.1.2-1.7 1.7-1.7h2.1v-4.2h-3.3c-4.1 0-5.5 2.1-5.5 5.4v2.4h-2.6v4.2h2.6c-.2.1-.2 12.4-.2 12.4zm77.2-33.3v42.1H54.3V52.7h42.5zm1.5-1.5H52.8v45.1h45.5V51.2z" fill="#FB8E9A"/><path d="M96.8 52.7v42.1H54.3V52.7h42.5zm1.5-1.5H52.8v45.1h45.5V51.2z" fill="#FB8E9A"/><path d="M85.4 60.6H65.6c-1.8 0-3.3 1.5-3.3 3.3v19.7c0 1.8 1.5 3.3 3.3 3.3h19.8c1.8 0 3.3-1.5 3.3-3.3V63.9c0-1.9-1.3-3.3-3.3-3.3zm-9.8 8c2.9 0 5.3 2.3 5.3 5.1 0 2.9-2.4 5.1-5.3 5.1s-5.3-2.3-5.3-5.1c-.1-2.9 2.2-5.1 5.3-5.1zm9.8 14.1c0 .6-.3.8-.8.8H66.5c-.6 0-.8-.3-.8-.8V71.1l2.1.5c-.2.8-.3 1.5-.3 2.3 0 4.4 3.6 8 8.2 8 4.5 0 8.2-3.6 8.2-8 0-.8-.2-1.5-.3-2.3l2-.5-.2 11.6zm0-14.7c0 .5-.3.8-.8.8h-3.3c-.5 0-.8-.3-.8-.8v-3.3c0-.5.3-.8.8-.8h3.3c.5 0 .8.3.8.8V68zm63.7-15.3v41.9h-42.4V52.7h42.4zm1.5-1.5h-45.5v44.9h45.5V51.2z" fill="#FB8E9A"/><path d="M149.1 52.7v41.9h-42.4V52.7h42.4zm1.5-1.5h-45.5v44.9h45.5V51.2z" fill="#FB8E9A"/><path d="M138.6 68.9c0 6.3-3.5 10.9-8.6 10.9-1.7 0-3.3-.9-3.9-1.9 0 0-.9 3.7-1.1 4.3-.8 2.5-2.7 4.9-2.9 5.2-.2.1-.3.1-.5-.1 0-.3-.6-3.4 0-6 .3-1.3 2.1-8.7 2.1-8.7s-.5-1-.5-2.5c0-2.4 1.4-4.2 3.2-4.2 1.5 0 2.1 1 2.1 2.4 0 1.5-.9 3.6-1.4 5.7-.5 1.6.9 3 2.6 3 3 0 5.2-3.9 5.2-8.5 0-3.4-2.4-6.1-6.7-6.1-4.8 0-7.9 3.6-7.9 7.6 0 1.3.5 2.4 1.1 3.1.3.3.3.4.3.9-.2.3-.3 1-.3 1.3-.2.4-.5.6-.8.4-2.3-.9-3.3-3.3-3.3-6.1 0-4.5 3.8-9.9 11.5-9.9 5.9.1 9.8 4.6 9.8 9.2z" fill="#FB8E9A"/></svg>
